X: 1
T: Besarabye    [Bm]
D: Brave Old World: Beyond the Pale
R: bulgar
Z: 2018 John Chambers <jc:trillian.mit.edu>
M: C|
L: 1/8
K: Bdor^e
|: "Bm"ba gf | gf ed | cB cd |1,3 e2 f2 :|2,4 B4 :|
|: "Bm"dd cB | ef ed | cB cd |1,3 e2 f2 :|2,4 B4 :|
